X:46
T: Jaj a hátam
O: Trunk (Bákó), 1930
Q: 1/4=138
M:4/4
L:1/4
K:F
F/F/E/D/ F/F/E/D/ | F E C2 | 
F/F/G/G/ A/A/A/G/ | A (G/E/) F2 | 
F/F/G/G/ A/A/A/A/ | c G A2 | 
D/D/E/E/ G/G/G/E/ | F E D2 | 

